X:1
T:Miller of Drohan, The
R:reel
M:4/4
L:1/8
K:Emin
|:~G2 BG DGBG|EGef gdBA|~G2 BG DGBA|GEGA BdBA|
~G2 BG DGBG|EGef gdBA|faef dzed|1 BAGA ~B2 BA:|2 BAGA BG (3Bcd|]
|:e~E3 DEBE|DEGA ~B3A|G~E3 DEBE|DEGA BG (3Bcd|
e~E3 DEBE|DEGA ~B3A|G~E3 DEBE|DEGA ~B3A:|
